X: 21486
T: Key West, The
R: hornpipe
M: 4/4
K: Gmajor
|:(3ABc|d>BG>B d>gf>g|d>BG>B d>g (3ffg|d>B (3eed c>B (3BAG|(3FGA G>E D>d (3ed^c|
d>B (3GAB d>gf>g|d>BG>B d>gf>g|e>dc>B A>G (3FED|G2 (3B^AB G2:|
|:c>B|A>FD>F A2 (3cBA|B>GD>G B2 (3DGB|d>G (3Bdg g>dB>G|A>d (3^cde d2 (3def|
g>bg>d (3Bcd B>G|C2 (3Bcd e2 (3gfe|d>c (3edc B>A (3AGF|G2 g2 G2:|

